X:4
K:C
T:IV. \'Eyze sh\'eleg! (What snow!)
L:1/4
Z4| z4 !fermata! "8va - - - -"c'- [M:4/4] |: [Q:1/4=64"]"- - - - - - - - - - - - - - - - - - - - - - - -"!0!c'4- :|8 !diminuendo(! !0!c'4!diminuendo)! || 
z2 z !pp! !sfz! !trill! !trill(!B, !trill)! | [L:1/8] "cresc. poco a poco" {A,B,} C z z2 !trill! !trill(! !sfz!F2 !trill)! E z | z2 !trill! !trill(! !sfz! B2 !trill)! {AB} c  z z2| !trill! !trill(! !sfz!f2 !trill)! e z  z2 !trill! !trill(! !sfz! b2 !trill)!  | 
{ab}c'z z2 !sfz! !trill! !trill(!f'2 !trill)! e'z|  z2 (B,C) (EA) "esp."!mp!(c!crescendo(!c')!crescendo)! | !mf!b3 G | (3:2:4 g2f2(cF) | 
g4 (3:2:4 (e2c2(CA)|e2 ) (E2 (3:2:4 !diminuendo(!c2B2GG,!diminuendo)! |[M:6/4] !trill! !trill(! !p! !sfz! B2) !trill)! Az !0! "8va" a2 z2 z4 | 
!sfz! !trill! !trill(! B2 !trill)! A z !0!"8va"b2 z2z4| [M:4/4] [Q:"rit."] !trill! !trill(! B2 !trill)! Az "8va" !0! c'2z2| !trill! !trill(! !sfz! B2!trill)!Az !0!"8va"d'2z2|]

